X: 1
T: The Broken Pledge
R: reel
M: 4/4
L: 1/8
K: Ddor
A|dcAG ADDB|cAGF ECCE|DEFG Addc|AcGc Adfe|
dcAG A2dB|cAGF ECCE|DEFG Addc|AcGc ADD:||
A|dcAG Acde|fAdf ecAB|cAGE GAcd|ecc2 eage|
dcAG Acde|fAdf ecAG|F2FE FGAB|cAGE FDD:||


Tune 1423	Setting 23607

